modules/stroke-7/icons/video.svg

<?xml version="1.0" encoding="utf-8"?>
<!-- Generated by IcoMoon.io -->
<!DOCTYPE svg PUBLIC "-//W3C//DTD SVG 1.1//EN" "http://www.w3.org/Graphics/SVG/1.1/DTD/svg11.dtd">
<svg version="1.1" xmlns="http://www.w3.org/2000/svg" xmlns:xlink="http://www.w3.org/1999/xlink" width="32" height="32" viewBox="0 0 32 32">
<g id="icomoon-ignore">
</g>
<path d="M28.186 9.069l-6.855 4.122v-4.655c0-0.883-0.716-1.599-1.599-1.599h-17.060c-0.884 0-1.599 0.716-1.599 1.599v14.928c0 0.883 0.715 1.599 1.599 1.599h17.060c0.883 0 1.599-0.716 1.599-1.599v-4.744l7.006 4.211h2.591v-13.861h-2.742zM20.265 23.464c0 0.294-0.24 0.533-0.533 0.533h-17.060c-0.295 0-0.533-0.239-0.533-0.533v-14.928c0-0.294 0.238-0.533 0.533-0.533h17.060c0.294 0 0.533 0.239 0.533 0.533v14.928zM29.861 21.864h-1.229l-7.301-4.389v-3.039l7.15-4.3h1.38v11.729z" fill="#000000"></path>
</svg>

<svg xmlns="http://www.w3.org/2000/svg" width="32" height="32"><path d="M28.186 9.069l-6.855 4.122V8.536a1.6 1.6 0 0 0-1.599-1.599H2.672c-.884 0-1.599.716-1.599 1.599v14.928c0 .883.715 1.599 1.599 1.599h17.06a1.6 1.6 0 0 0 1.599-1.599V18.72l7.006 4.211h2.591V9.07h-2.742zm-7.921 14.395c0 .294-.24.533-.533.533H2.672a.533.533 0 0 1-.533-.533V8.536c0-.294.238-.533.533-.533h17.06c.294 0 .533.239.533.533v14.928zm9.596-1.6h-1.229l-7.301-4.389v-3.039l7.15-4.3h1.38v11.729z"/></svg>
